dist/svg/static/fuel-small.svg

<svg xmlns="http://www.w3.org/2000/svg" width="24" height="24" viewBox="0 0 24 24"><path d="M15 21.5H1m12.5 0v-18a1 1 0 0 0-1-1h-9a1 1 0 0 0-1 1v18h11zm-1.5-11H4m11 0h1.5a1.056 1.056 0 0 1 1 1v5a1.003 1.003 0 0 0 1 1h2a1.003 1.003 0 0 0 1-1v-10l-4-4" fill="none" stroke="currentColor" stroke-miterlimit="10"/></svg>

<?xml version="1.0" encoding="UTF-8" standalone="no"?>
<svg width="24px" height="24px" viewBox="0 0 24 24" version="1.1" xmlns="http://www.w3.org/2000/svg" xmlns:xlink="http://www.w3.org/1999/xlink">
    <!-- Generator: sketchtool 46.2 (44496) - http://www.bohemiancoding.com/sketch -->
    <title>fuel-small</title>
    <desc>Created with sketchtool.</desc>
    <defs></defs>
    <g id="icons-published" stroke="none" stroke-width="1" fill="none" fill-rule="evenodd">
        <g id="briefing" transform="translate(-68.000000, -666.000000)"></g>
        <g id="fuel-small" stroke="#000000">
            <path d="M15,21.5 L1,21.5 M13.5,21.5 L13.5,3.5 C13.5,2.9 13.1,2.5 12.5,2.5 L3.5,2.5 C2.9,2.5 2.5,2.9 2.5,3.5 L2.5,21.5 M12,10.5 L4,10.5 M15,10.5 L16.5,10.5 C17,10.5 17.5,11 17.5,11.5 L17.5,16.5 C17.5,17.1 17.9,17.5 18.5,17.5 L20.5,17.5 C21.1,17.5 21.5,17.1 21.5,16.5 L21.5,6.5 L17.5,2.5" id="Shape"></path>
        </g>
    </g>
</svg>
